public/library/etherscan-text-light.svg

<svg width="535" height="123" viewBox="0 0 535 123" fill="none" xmlns="http://www.w3.org/2000/svg">
<g clip-path="url(#clip0_3340_1163)">
<mask id="mask0_3340_1163" style="mask-type:luminance" maskUnits="userSpaceOnUse" x="0" y="0" width="535" height="123">
<path d="M534.515 0H0V122.14H534.515V0Z" fill="white"/>
</mask>
<g mask="url(#mask0_3340_1163)">
<path d="M157.747 39.9481V56.7421H178.147V63.6481H157.747V80.8351H180.506V88.1351H148.801V32.7351H180.501V39.9551L157.747 39.9481ZM210.955 80.3601V88.1291H205.461C200.857 88.1291 197.365 87.0174 194.984 84.7941C192.603 82.5707 191.413 78.8704 191.414 73.6931V52.5041H185.214V44.8921H191.414V34.1411H200.439V44.8921H210.876V52.5041H200.439V73.8501C200.439 76.3087 200.897 78.0087 201.812 78.9501C202.727 79.8914 204.336 80.3614 206.638 80.3601H210.955ZM243.523 44.1861C248.546 44.1861 252.574 45.8081 255.608 49.0521C258.642 52.2961 260.159 56.9261 260.16 62.9421V88.1331H251.214V63.8841C251.214 60.0127 250.22 57.0174 248.232 54.8981C247.175 53.8199 245.9 52.979 244.493 52.4311C243.086 51.8831 241.578 51.6408 240.07 51.7201C238.484 51.6502 236.901 51.9185 235.426 52.5071C233.951 53.0957 232.618 53.9911 231.516 55.1341C229.371 57.4101 228.298 60.7454 228.298 65.1401V88.1331H219.352V30.0601H228.298V54.3881C229.332 51.2955 231.378 48.6414 234.105 46.8541C236.91 45.0506 240.189 44.1219 243.523 44.1861ZM310.778 64.4331C310.793 65.7217 310.688 67.0089 310.464 68.2781H277.189C277.346 72.7254 278.575 76.0214 280.877 78.1661C283.196 80.3184 286.268 81.474 289.431 81.3841C292.136 81.4689 294.794 80.6699 297.004 79.1081C299.018 77.6729 300.386 75.5017 300.81 73.0651H310.384C309.848 76.0105 308.61 78.7833 306.774 81.1481C304.883 83.5495 302.431 85.4495 299.633 86.6811C296.546 88.0477 293.199 88.7299 289.823 88.6811C285.956 88.7575 282.133 87.8388 278.723 86.0131C275.507 84.2364 272.877 81.5647 271.15 78.3221C269.246 74.6684 268.301 70.5909 268.403 66.4721C268.306 62.3787 269.252 58.3279 271.15 54.7001C272.877 51.4575 275.507 48.7857 278.723 47.0091C282.133 45.1833 285.956 44.2646 289.823 44.3411C293.687 44.252 297.509 45.1573 300.923 46.9701C303.996 48.6303 306.529 51.1357 308.223 54.1901C309.944 57.3268 310.824 60.8555 310.777 64.4331H310.778ZM301.753 64.1981C301.936 61.7426 301.433 59.2847 300.301 57.0981C299.309 55.2655 297.773 53.7851 295.906 52.8601C294.013 51.9364 291.93 51.4663 289.824 51.4871C286.589 51.3873 283.441 52.5401 281.035 54.7051C278.681 56.8504 277.399 60.0171 277.19 64.2051L301.753 64.1981ZM328.353 53.3681C329.776 50.5876 331.951 48.2627 334.631 46.6581C337.48 44.9757 340.74 44.1197 344.048 44.1861V53.9171H341.38C337.456 53.9171 334.304 54.8717 331.924 56.7811C329.544 58.6904 328.356 61.8427 328.361 66.2381V88.1381H319.415V44.8921H328.361L328.353 53.3681ZM364.923 44.3431C369.998 44.3431 374.064 45.6381 377.123 48.2281C380.218 50.8792 382.218 54.5857 382.734 58.6281H374.261C373.977 56.4278 372.904 54.4056 371.24 52.9381C369.398 51.4322 367.063 50.6633 364.687 50.7801C362.809 50.6599 360.952 51.2323 359.468 52.3891C358.855 52.9314 358.372 53.604 358.052 54.3576C357.733 55.1111 357.587 55.9266 357.624 56.7441C357.599 57.3573 357.705 57.9689 357.935 58.5379C358.165 59.107 358.514 59.6205 358.958 60.0441C359.92 60.9244 361.056 61.5928 362.293 62.0061C364.162 62.6266 366.061 63.1506 367.983 63.5761C371.227 64.3081 375.87 65.8521 375.87 65.8521C375.87 65.8521 379.611 67.8791 381.049 69.5801C382.58 71.5603 383.346 74.0259 383.207 76.5251C383.252 78.2096 382.903 79.8814 382.187 81.4073C381.472 82.9331 380.411 84.2709 379.087 85.3141C376.34 87.5641 372.64 88.6891 367.987 88.6891C362.598 88.6891 358.243 87.4334 354.921 84.9221C353.267 83.6612 351.883 82.0805 350.852 80.2739C349.821 78.4673 349.165 76.4717 348.921 74.4061H357.632C357.736 75.5248 358.068 76.6103 358.608 77.5956C359.148 78.5809 359.884 79.4452 360.771 80.1351C362.851 81.6808 365.402 82.4582 367.991 82.3351C369.832 82.4402 371.643 81.8366 373.053 80.6481C373.653 80.11 374.128 79.4476 374.446 78.707C374.764 77.9665 374.916 77.1656 374.893 76.3601C374.926 75.6927 374.817 75.0258 374.574 74.4036C374.33 73.7813 373.957 73.2178 373.48 72.7501C372.463 71.8156 371.259 71.1068 369.949 70.6701C368.046 70.042 366.107 69.531 364.142 69.1401C361.549 68.5654 358.994 67.8306 356.491 66.9401C354.533 66.2104 352.801 64.9789 351.468 63.3691C349.994 61.4536 349.255 59.0726 349.388 56.6591C349.34 54.957 349.687 53.2669 350.401 51.7214C351.116 50.176 352.18 48.8173 353.508 47.7521C356.255 45.4794 360.061 44.3431 364.926 44.3431H364.923ZM411.381 44.3431C416.981 44.3431 421.611 45.8211 425.271 48.7771C428.971 51.7987 431.407 56.0959 432.098 60.8231H422.598C422.186 58.2847 420.826 55.9973 418.792 54.4231C416.599 52.8229 413.932 52.0075 411.219 52.1081C409.604 52.0694 407.999 52.3747 406.51 53.0038C405.022 53.633 403.685 54.5715 402.587 55.7571C400.285 58.1897 399.134 61.7604 399.134 66.4691C399.134 71.1777 400.285 74.7614 402.587 77.2201C403.679 78.4157 405.014 79.3635 406.503 79.9997C407.992 80.6358 409.6 80.9456 411.219 80.9081C413.94 81.0122 416.615 80.1838 418.801 78.5601C420.83 76.9666 422.188 74.6706 422.607 72.1251H432.107C431.41 76.8611 428.977 81.1687 425.28 84.2101C421.618 87.1921 416.988 88.6831 411.39 88.6831C407.523 88.7595 403.7 87.8408 400.29 86.0151C397.074 84.2384 394.444 81.5667 392.717 78.3241C390.809 74.6709 389.861 70.5931 389.961 66.4731C389.864 62.3797 390.81 58.3289 392.708 54.7011C394.435 51.4585 397.065 48.7867 400.281 47.0101C403.693 45.184 407.516 44.2656 411.385 44.3431H411.381ZM458.075 44.3431C461.644 44.2377 465.156 45.2518 468.12 47.2431C470.847 49.1187 472.908 51.8118 474.006 54.9341V44.8921H482.952V88.1331H474.006V78.0881C472.908 81.2104 470.847 83.9034 468.12 85.7791C465.156 87.7704 461.644 88.7844 458.075 88.6791C454.532 88.7387 451.041 87.8152 447.991 86.0111C444.981 84.173 442.569 81.5014 441.046 78.3201C439.295 74.6204 438.435 70.562 438.535 66.4701C438.44 62.4037 439.3 58.3718 441.046 54.6981C442.569 51.5167 444.981 48.8452 447.991 47.0071C451.043 45.2036 454.535 44.2814 458.079 44.3431H458.075ZM460.822 52.1911C459.053 52.1113 457.288 52.4094 455.644 53.0657C454 53.722 452.514 54.7214 451.287 55.9971C448.906 58.5344 447.716 62.0267 447.716 66.4741C447.716 70.9214 448.907 74.4134 451.29 76.9501C452.517 78.2265 454.002 79.2266 455.647 79.8835C457.291 80.5405 459.056 80.8394 460.825 80.7601C463.194 80.7976 465.527 80.187 467.574 78.9941C469.576 77.8026 471.207 76.0771 472.283 74.0111C473.478 71.6829 474.071 69.0931 474.01 66.4771C474.062 63.8744 473.469 61.2994 472.283 58.9821C471.215 56.8993 469.584 55.1588 467.574 53.9591C465.528 52.7651 463.194 52.1534 460.825 52.1901L460.822 52.1911ZM517.875 44.1911C522.898 44.1911 526.926 45.8131 529.96 49.0571C532.994 52.3011 534.511 56.9311 534.512 62.9471V88.1331H525.566V63.8841C525.566 60.0127 524.572 57.0174 522.584 54.8981C521.527 53.82 520.252 52.9791 518.845 52.4311C517.438 51.8832 515.93 51.6408 514.422 51.7201C512.836 51.6502 511.253 51.9185 509.778 52.5071C508.303 53.0957 506.97 53.9911 505.868 55.1341C503.723 57.4101 502.65 60.7454 502.65 65.1401V88.1331H493.704V44.8921H502.65V54.3921C503.684 51.2995 505.73 48.6454 508.457 46.8581C511.263 45.0526 514.542 44.1225 517.878 44.1861L517.875 44.1911Z" fill="#21325B"/>
<path d="M25.79 58.4149C25.7901 57.7357 25.9244 57.0633 26.1851 56.4361C26.4458 55.809 26.8278 55.2396 27.3092 54.7605C27.7907 54.2814 28.3619 53.9021 28.9903 53.6444C29.6187 53.3867 30.2918 53.2557 30.971 53.2589L39.561 53.2869C40.9305 53.2869 42.244 53.831 43.2124 54.7994C44.1809 55.7678 44.725 57.0813 44.725 58.4509V90.9309C45.692 90.6439 46.934 90.3379 48.293 90.0179C49.237 89.7962 50.0783 89.262 50.6805 88.5019C51.2826 87.7418 51.6102 86.8006 51.61 85.8309V45.5409C51.61 44.1712 52.154 42.8576 53.1224 41.889C54.0908 40.9204 55.4043 40.3762 56.774 40.3759H65.381C66.7506 40.3762 68.0641 40.9204 69.0325 41.889C70.0009 42.8576 70.545 44.1712 70.545 45.5409V82.9339C70.545 82.9339 72.7 82.0619 74.799 81.1759C75.5787 80.8462 76.2441 80.2941 76.7122 79.5886C77.1803 78.8832 77.4302 78.0555 77.431 77.2089V32.6309C77.431 31.2615 77.9749 29.9481 78.9431 28.9797C79.9113 28.0113 81.2245 27.4672 82.5939 27.4669H91.201C92.5706 27.4669 93.884 28.0109 94.8525 28.9794C95.8209 29.9478 96.365 31.2613 96.365 32.6309V69.3399C103.827 63.9319 111.389 57.4279 117.39 49.6069C118.261 48.4717 118.837 47.1386 119.067 45.7267C119.297 44.3148 119.174 42.8678 118.709 41.5149C115.931 33.5227 111.516 26.1983 105.745 20.0105C99.974 13.8228 92.9749 8.90785 85.1955 5.58032C77.4161 2.2528 69.0277 0.585938 60.5671 0.686416C52.1065 0.786893 43.7601 2.6525 36.062 6.16383C28.3638 9.67517 21.4834 14.7549 15.8611 21.078C10.2388 27.401 5.99842 34.8282 3.41131 42.8842C0.824207 50.9401 -0.0526487 59.4474 0.836851 67.8617C1.72635 76.276 4.36263 84.4119 8.57696 91.7489C9.31111 93.0145 10.3912 94.0444 11.6903 94.7175C12.9894 95.3906 14.4536 95.679 15.911 95.5489C17.539 95.4059 19.566 95.2029 21.976 94.9199C23.0251 94.8008 23.9937 94.2999 24.6972 93.5126C25.4008 92.7253 25.7901 91.7067 25.791 90.6509L25.79 58.4149Z" fill="#21325B"/>
<path d="M25.6021 110.51C34.6744 117.11 45.3959 121.072 56.5802 121.957C67.7646 122.841 78.9757 120.615 88.9731 115.523C98.9705 110.431 107.364 102.673 113.226 93.1068C119.087 83.5405 122.188 72.539 122.185 61.3197C122.185 59.9197 122.12 58.5347 122.027 57.1577C99.808 90.2957 58.7831 105.788 25.604 110.505" fill="#979695"/>
</g>
</g>
<defs>
<clipPath id="clip0_3340_1163">
<rect width="535" height="123" fill="white"/>
</clipPath>
</defs>
</svg>

<svg xmlns="http://www.w3.org/2000/svg" width="535" height="123" fill="none" viewBox="0 0 535 123"><g clip-path="url(#a)"><mask id="b" width="535" height="123" x="0" y="0" maskUnits="userSpaceOnUse" style="mask-type:luminance"><path fill="#fff" d="M534.515 0H0v122.14h534.515z"/></mask><g mask="url(#b)"><path fill="#21325b" d="M157.747 39.948v16.794h20.4v6.906h-20.4v17.187h22.759v7.3h-31.705v-55.4h31.7v7.22zm53.208 40.412v7.77h-5.494q-6.906 0-10.477-3.336t-3.57-11.1v-21.19h-6.2v-7.612h6.2v-10.75h9.025v10.75h10.437v7.612h-10.437V73.85q0 3.689 1.373 5.1 1.373 1.412 4.826 1.41zm32.568-36.174q7.534 0 12.085 4.866 4.55 4.866 4.552 13.89v25.191h-8.946V63.884q0-5.807-2.982-8.986a10.65 10.65 0 0 0-8.162-3.178 11.2 11.2 0 0 0-8.554 3.414q-3.218 3.414-3.218 10.006v22.993h-8.946V30.06h8.946v24.328a14.5 14.5 0 0 1 5.807-7.534 16.8 16.8 0 0 1 9.418-2.668m67.255 20.247a20.7 20.7 0 0 1-.314 3.845h-33.275q.235 6.67 3.688 9.888a12.07 12.07 0 0 0 8.554 3.218 12.45 12.45 0 0 0 7.573-2.276 9.4 9.4 0 0 0 3.806-6.043h9.574a18.6 18.6 0 0 1-3.61 8.083 18.66 18.66 0 0 1-7.141 5.533 23.4 23.4 0 0 1-9.81 2 22.6 22.6 0 0 1-11.1-2.668 19 19 0 0 1-7.573-7.69 24.34 24.34 0 0 1-2.747-11.85A24.16 24.16 0 0 1 271.15 54.7a19 19 0 0 1 7.573-7.69 22.6 22.6 0 0 1 11.1-2.669 22.56 22.56 0 0 1 11.1 2.63 18.3 18.3 0 0 1 7.3 7.22 20.7 20.7 0 0 1 2.554 10.242zm-9.025-.235a13.3 13.3 0 0 0-1.452-7.1 10.1 10.1 0 0 0-4.395-4.238 13.6 13.6 0 0 0-6.082-1.373 12.56 12.56 0 0 0-8.789 3.218q-3.531 3.218-3.845 9.5zm26.6-10.83a16.67 16.67 0 0 1 6.278-6.71 17.8 17.8 0 0 1 9.417-2.472v9.731h-2.668q-5.886 0-9.456 2.864-3.57 2.865-3.563 9.457v21.9h-8.946V44.892h8.946zm36.57-9.025q7.612 0 12.2 3.885a16.43 16.43 0 0 1 5.611 10.4h-8.473a9.15 9.15 0 0 0-3.021-5.69 9.6 9.6 0 0 0-6.553-2.158 7.7 7.7 0 0 0-5.219 1.61 5.485 5.485 0 0 0-1.844 4.355 4.32 4.32 0 0 0 1.334 3.3 9.3 9.3 0 0 0 3.335 1.961 58 58 0 0 0 5.69 1.57c3.244.732 7.887 2.276 7.887 2.276s3.741 2.027 5.179 3.728a10.4 10.4 0 0 1 2.158 6.945 10.8 10.8 0 0 1-1.02 4.882 10.8 10.8 0 0 1-3.1 3.907q-4.12 3.375-11.1 3.375-8.083 0-13.066-3.767a15.52 15.52 0 0 1-6-10.516h8.711a8.22 8.22 0 0 0 3.139 5.73 11.2 11.2 0 0 0 7.22 2.2 7.22 7.22 0 0 0 5.062-1.688 5.55 5.55 0 0 0 1.84-4.288 4.74 4.74 0 0 0-1.413-3.61 9.8 9.8 0 0 0-3.531-2.08 49 49 0 0 0-5.807-1.53 64 64 0 0 1-7.651-2.2 11.93 11.93 0 0 1-5.023-3.57 10.1 10.1 0 0 1-2.08-6.71 11.023 11.023 0 0 1 4.12-8.907q4.12-3.41 11.418-3.41zm46.458 0q8.4 0 13.89 4.434a19.13 19.13 0 0 1 6.827 12.046h-9.5a10.15 10.15 0 0 0-3.806-6.4 12.1 12.1 0 0 0-7.573-2.315 11.4 11.4 0 0 0-8.632 3.65q-3.453 3.648-3.453 10.711t3.453 10.751a11.34 11.34 0 0 0 8.632 3.688 11.95 11.95 0 0 0 7.582-2.348 10.3 10.3 0 0 0 3.806-6.435h9.5a19.28 19.28 0 0 1-6.827 12.085q-5.493 4.473-13.89 4.473a22.6 22.6 0 0 1-11.1-2.668 19 19 0 0 1-7.573-7.69 24.3 24.3 0 0 1-2.756-11.852 24.16 24.16 0 0 1 2.747-11.772 19 19 0 0 1 7.573-7.69 22.6 22.6 0 0 1 11.104-2.668zm46.694 0a17.1 17.1 0 0 1 10.045 2.9 15.63 15.63 0 0 1 5.886 7.691V44.892h8.946v43.241h-8.946V78.088a15.63 15.63 0 0 1-5.886 7.691 17.1 17.1 0 0 1-10.045 2.9 19.2 19.2 0 0 1-10.084-2.668 18.24 18.24 0 0 1-6.945-7.69 26.2 26.2 0 0 1-2.511-11.85 26 26 0 0 1 2.511-11.773 18.24 18.24 0 0 1 6.945-7.69 19.17 19.17 0 0 1 10.088-2.665zm2.747 7.848a12.45 12.45 0 0 0-9.535 3.806q-3.571 3.806-3.571 10.477t3.574 10.476a12.45 12.45 0 0 0 9.535 3.81 13 13 0 0 0 6.749-1.766 12.54 12.54 0 0 0 4.709-4.983 15.7 15.7 0 0 0 1.727-7.534 15.76 15.76 0 0 0-1.727-7.495 12.5 12.5 0 0 0-4.709-5.023 13 13 0 0 0-6.749-1.769zm57.053-8q7.534 0 12.085 4.866 4.55 4.866 4.552 13.89v25.186h-8.946V63.884q0-5.807-2.982-8.986a10.65 10.65 0 0 0-8.162-3.178 11.2 11.2 0 0 0-8.554 3.414q-3.218 3.414-3.218 10.006v22.993h-8.946v-43.24h8.946v9.5a14.5 14.5 0 0 1 5.807-7.535 16.8 16.8 0 0 1 9.421-2.672zM25.79 58.415a5.157 5.157 0 0 1 5.181-5.156l8.59.028a5.164 5.164 0 0 1 5.164 5.164v32.48c.967-.287 2.209-.593 3.568-.913a4.3 4.3 0 0 0 3.317-4.187V45.54a5.165 5.165 0 0 1 5.164-5.165h8.607a5.165 5.165 0 0 1 5.164 5.165v37.393s2.155-.872 4.254-1.758a4.31 4.31 0 0 0 2.632-3.967V32.63a5.164 5.164 0 0 1 5.163-5.164H91.2a5.164 5.164 0 0 1 5.164 5.164V69.34c7.462-5.408 15.024-11.912 21.025-19.733a8.66 8.66 0 0 0 1.319-8.092A60.79 60.79 0 0 0 60.567.686 60.788 60.788 0 0 0 8.577 91.75a7.69 7.69 0 0 0 7.334 3.8c1.628-.143 3.655-.346 6.065-.63a4.3 4.3 0 0 0 3.815-4.268z"/><path fill="#979695" d="M25.602 110.51a60.81 60.81 0 0 0 63.371 5.013 60.82 60.82 0 0 0 33.212-54.203c0-1.4-.065-2.785-.158-4.162-22.219 33.138-63.244 48.63-96.423 53.347"/></g></g><defs><clipPath id="a"><path fill="#fff" d="M0 0h535v123H0z"/></clipPath></defs></svg>
